packages/ffe-icons/icons/open/300/lg/nest_wifi_mistral.svg

<svg xmlns="http://www.w3.org/2000/svg" height="40" viewBox="0 -960 960 960" width="40"><path d="M354.615-140.001q-89.422 0-152.018-62.596-62.596-62.596-62.596-152.018v-250.77q0-89.422 62.596-152.018 62.596-62.596 152.018-62.596h250.77q89.422 0 152.018 62.596 62.596 62.596 62.596 152.018v250.77q0 89.422-62.596 152.018-62.596 62.596-152.018 62.596h-250.77Zm-164.359-207.69h579.488v-257.694q0-68.24-48.06-116.299-48.059-48.06-116.299-48.06h-250.77q-68.24 0-116.299 48.06-48.06 48.059-48.06 116.299v257.694Zm10.949 50.255q17.999 49.231 60.807 78.205 42.808 28.975 92.603 28.975h250.77q50.205 0 92.808-28.975 42.602-28.974 60.602-78.205h-557.59ZM480-347.691Z"/></svg>

<svg xmlns="http://www.w3.org/2000/svg" viewBox="0 -960 960 960" width="32" height="32"><path d="M354.61-140q-89.42 0-152.01-62.6Q140-265.19 140-354.61v-250.78q0-89.42 62.6-152.01Q265.19-820 354.61-820h250.78q89.42 0 152.01 62.6Q820-694.81 820-605.39v250.78q0 89.42-62.6 152.01Q694.81-140 605.39-140H354.61ZM190.26-347.69h579.48v-257.7q0-68.24-48.06-116.29-48.05-48.06-116.29-48.06H354.61q-68.24 0-116.29 48.06-48.06 48.05-48.06 116.29v257.7Zm10.94 50.25q18 49.23 60.81 78.21 42.81 28.97 92.6 28.97h250.78q50.2 0 92.8-28.97 42.61-28.98 60.61-78.21H201.2ZM480-347.69Z"/></svg>
